artwork/resources/intui/icons/shell/toolbar/apply-all-changes@20x20.svg

<svg width="20" height="20" viewBox="0 0 20 20" fill="none" xmlns="http://www.w3.org/2000/svg">
<path d="M10 19L13.4766 9H15.403L19 19H17.358L16.4979 16.4571H12.475L11.6691 19H10ZM15.986 14.9579L14.588 10.9L14.4323 10.2857L14.2765 10.9L12.9541 14.9579H15.986Z" fill="#6C707E"/>
<path d="M11.5 1.5L15 4.5L11.5 7.5" stroke="#6C707E" stroke-width="1.5" stroke-linecap="round"/>
<path d="M8.5 13.75C8.91421 13.75 9.25 13.4142 9.25 13C9.25 12.5858 8.91421 12.25 8.5 12.25V13.75ZM8.5 12.25H6.75V13.75H8.5V12.25ZM6.75 5.25H14.5V3.75H6.75V5.25ZM3.25 8.75C3.25 6.817 4.817 5.25 6.75 5.25V3.75C3.98858 3.75 1.75 5.98858 1.75 8.75H3.25ZM6.75 12.25C4.817 12.25 3.25 10.683 3.25 8.75H1.75C1.75 11.5114 3.98858 13.75 6.75 13.75V12.25Z" fill="#6C707E"/>
</svg>

<svg width="20" height="20" viewBox="0 0 20 20" fill="none" xmlns="http://www.w3.org/2000/svg"><path d="M10 19l3.477-10h1.926L19 19h-1.642l-.86-2.543h-4.023L11.669 19H10zm5.986-4.042L14.588 10.9l-.156-.614-.155.614-1.323 4.058h3.032z" fill="#6C707E"/><path d="M11.5 1.5l3.5 3-3.5 3" stroke="#6C707E" stroke-width="1.5" stroke-linecap="round"/><path d="M8.5 13.75a.75.75 0 0 0 0-1.5v1.5zm0-1.5H6.75v1.5H8.5v-1.5zm-1.75-7h7.75v-1.5H6.75v1.5zm-3.5 3.5a3.5 3.5 0 0 1 3.5-3.5v-1.5a5 5 0 0 0-5 5h1.5zm3.5 3.5a3.5 3.5 0 0 1-3.5-3.5h-1.5a5 5 0 0 0 5 5v-1.5z" fill="#6C707E"/></svg>
